X:9726
T:Lluita
C:Trad.
M:6/8
L:1/8
Q:3/8=56
K:C
|CCC CDE|F3 z ED|G2 F E2 D|F3 C2 z|
|CCC CDE|F3 z ED|G2 F E2 D|C3 z
